X:17
T:Up in the Morning Early
C:arr. Carlo Minasi
M:4/4
L:1/8
B:Chappell's One Hundred Scotch Melodies
B:Arranged for the Concertina by Carlo Minasi
Q:"Moderato  "3/8=100
Z:Peter Dunk 2012
K:Bb
!p!C|G2 A B2 c|(d>=ef) F2 F|\
(G>AB/c/) d>cB/A/|!diminuendo(!(G3 d2)!diminuendo)! !mf!D|
G2 [A^F] [B2G2][cA]|([dB]>=ef) F2 F|\
(G>AB/c/) d>cB/A/|!diminuendo(!(G3 [d2B2G2])!diminuendo)!||
B|([cGE]>cB) [B2G2D2] B|([cGE]>dc) [c2A2F2] [cA]|\
([DB]>[ec][fd]) ([ge]>[fd][ec])|([d3B3] f2) !mf!f|
([BFD]>c[BFD]) [B2G2E] B|([cAF]df) H[g2e2B2]([f/A/]e/)|\
([dB]>cB) [AEC]>G[^FC]|!diminuendo(!([G3B,3] d2)!diminuendo)!||

